X:1
T:[ID 5-41]
T:[ID 5-41]
T:Bezeichnung standardisiert: Tantz Tantz 4. In dieser Quelle auch als: Angeloise
T:Urheber unbekannt Datum in der hier transkribierten schriftlichen Quelle: 1775
C:Urheber unbekannt
C:Datum in der hier transkribierten schriftlichen Quelle: 1775
L:1/8
M:2/4
K:G
V:1 treble 
V:1
 B,GFA | GB B2 | GB,CA, | B,/A,/B,/C/ B,B, | B,GFA | GB B2 | fd A/G/F/E/ | F2 F2 :: GBGB | Bg g2 | %10
 FAFA | df f2 | B,GFA | GBdg | f/e/d/c/ B/A/G/D/ | B,2 B,2 :| %16

